react/assets/forus-webshop/resources/_webshop-common/assets/img/file-icon-png.svg

<svg xmlns="http://www.w3.org/2000/svg" width="24" height="24" fill="none" viewBox="0 0 24 24"><path fill="#E2E5E7" d="M6 0C5.175 0 4.5 0.675 4.5 1.5V22.5C4.5 23.325 5.175 24 6 24H21C21.825 24 22.5 23.325 22.5 22.5V6L16.5 0H6Z"/><path fill="#B0B7BD" d="M18 6H22.5L16.5 0V4.5C16.5 5.325 17.175 6 18 6Z"/><path fill="#CAD1D8" d="M22.5 10.5L18 6H22.5V10.5Z"/><path fill="#E24075" d="M19.5 19.5C19.5 19.9125 19.1625 20.25 18.75 20.25H2.25C1.8375 20.25 1.5 19.9125 1.5 19.5V12C1.5 11.5875 1.8375 11.25 2.25 11.25H18.75C19.1625 11.25 19.5 11.5875 19.5 12V19.5Z"/><path fill="#CAD1D8" d="M18.75 20.25H4.5V21H18.75C19.1625 21 19.5 20.6625 19.5 20.25V19.5C19.5 19.9125 19.1625 20.25 18.75 20.25Z"/><path fill="#fff" d="M6.101 14.15C6.43467 14.15 6.72433 14.205 6.97 14.315C7.21933 14.425 7.41 14.5827 7.542 14.788C7.674 14.9933 7.74 15.2372 7.74 15.5195C7.74 15.7982 7.674 16.042 7.542 16.251C7.41 16.4563 7.21933 16.614 6.97 16.724C6.72433 16.834 6.43467 16.889 6.101 16.889H5.232V18H4.517V14.15H6.101ZM6.068 16.284C6.37967 16.284 6.61617 16.218 6.7775 16.086C6.93883 15.954 7.0195 15.7652 7.0195 15.5195C7.0195 15.2738 6.93883 15.085 6.7775 14.953C6.61617 14.821 6.37967 14.755 6.068 14.755H5.232V16.284H6.068ZM12.075 14.15V18H11.4865L9.36351 15.393V18H8.65401V14.15H9.24251L11.3655 16.757V14.15H12.075ZM15.9356 16.031H16.6121V17.5655C16.4141 17.7232 16.1831 17.8442 15.9191 17.9285C15.6551 18.0128 15.3838 18.055 15.1051 18.055C14.7128 18.055 14.359 17.9707 14.0436 17.802C13.7283 17.6297 13.4808 17.3932 13.3011 17.0925C13.1215 16.7918 13.0316 16.4527 13.0316 16.075C13.0316 15.6973 13.1215 15.3582 13.3011 15.0575C13.4808 14.7568 13.7283 14.5222 14.0436 14.3535C14.3626 14.1812 14.7201 14.095 15.1161 14.095C15.4388 14.095 15.7321 14.1482 15.9961 14.2545C16.2601 14.3608 16.482 14.5167 16.6616 14.722L16.2106 15.162C15.9173 14.8687 15.5635 14.722 15.1491 14.722C14.8778 14.722 14.6358 14.7788 14.4231 14.8925C14.2141 15.0062 14.0491 15.1657 13.9281 15.371C13.8108 15.5763 13.7521 15.811 13.7521 16.075C13.7521 16.3317 13.8108 16.5627 13.9281 16.768C14.0491 16.9733 14.2141 17.1347 14.4231 17.252C14.6358 17.3693 14.876 17.428 15.1436 17.428C15.4443 17.428 15.7083 17.362 15.9356 17.23V16.031Z"/></svg>

<?xml version="1.0" encoding="UTF-8" standalone="no"?><svg width="100%" height="100%" viewBox="0 0 24 24" version="1.1" xmlns="http://www.w3.org/2000/svg" xmlns:xlink="http://www.w3.org/1999/xlink" xml:space="preserve" style="fill-rule:evenodd;clip-rule:evenodd;stroke-linejoin:round;stroke-miterlimit:2;"><path d="M6,0c-0.825,0 -1.5,0.675 -1.5,1.5l0,21c0,0.825 0.675,1.5 1.5,1.5l15,0c0.825,0 1.5,-0.675 1.5,-1.5l0,-16.5l-6,-6l-10.5,0Z" style="fill:#f5f5f5;fill-rule:nonzero;"/><path d="M18,6l4.5,0l-6,-6l0,4.5c0,0.825 0.675,1.5 1.5,1.5Z" style="fill:#cdced2;fill-rule:nonzero;"/><path d="M22.5,10.5l-4.5,-4.5l4.5,0l0,4.5Z" style="fill:#cdced2;fill-opacity:0.29;fill-rule:nonzero;"/><path d="M18.75,20.25l-14.25,0l0,0.75l14.25,0c0.413,0 0.75,-0.337 0.75,-0.75l0,-0.75c0,0.413 -0.337,0.75 -0.75,0.75Z" style="fill:#cdced2;fill-opacity:0.29;fill-rule:nonzero;"/><path d="M19.5,19.5c0,0.413 -0.337,0.75 -0.75,0.75l-16.5,0c-0.413,0 -0.75,-0.337 -0.75,-0.75l0,-7.5c0,-0.412 0.337,-0.75 0.75,-0.75l16.5,0c0.413,0 0.75,0.338 0.75,0.75l0,7.5Z" style="fill:#282b39;fill-rule:nonzero;"/><path d="M6.101,14.15c0.334,0 0.623,0.055 0.869,0.165c0.249,0.11 0.44,0.268 0.572,0.473c0.132,0.205 0.198,0.449 0.198,0.732c0,0.278 -0.066,0.522 -0.198,0.731c-0.132,0.205 -0.323,0.363 -0.572,0.473c-0.246,0.11 -0.535,0.165 -0.869,0.165l-0.869,0l0,1.111l-0.715,0l0,-3.85l1.584,0Zm-0.033,2.134c0.312,0 0.548,-0.066 0.709,-0.198c0.162,-0.132 0.242,-0.321 0.242,-0.566c0,-0.246 -0.08,-0.435 -0.242,-0.567c-0.161,-0.132 -0.397,-0.198 -0.709,-0.198l-0.836,0l0,1.529l0.836,0Zm6.007,-2.134l-0,3.85l-0.589,0l-2.122,-2.607l-0,2.607l-0.71,0l0,-3.85l0.589,0l2.123,2.607l-0,-2.607l0.709,-0Zm3.861,1.881l0.676,-0l0,1.534c-0.198,0.158 -0.429,0.279 -0.693,0.363c-0.264,0.085 -0.535,0.127 -0.814,0.127c-0.392,0 -0.746,-0.084 -1.061,-0.253c-0.316,-0.172 -0.563,-0.409 -0.743,-0.709c-0.179,-0.301 -0.269,-0.64 -0.269,-1.018c-0,-0.378 0.09,-0.717 0.269,-1.018c0.18,-0.3 0.427,-0.535 0.743,-0.703c0.319,-0.173 0.676,-0.259 1.072,-0.259c0.323,0 0.616,0.053 0.88,0.16c0.264,0.106 0.486,0.262 0.666,0.467l-0.451,0.44c-0.294,-0.293 -0.647,-0.44 -1.062,-0.44c-0.271,0 -0.513,0.057 -0.726,0.171c-0.209,0.113 -0.374,0.273 -0.495,0.478c-0.117,0.205 -0.176,0.44 -0.176,0.704c0,0.257 0.059,0.488 0.176,0.693c0.121,0.205 0.286,0.367 0.495,0.484c0.213,0.117 0.453,0.176 0.721,0.176c0.3,0 0.564,-0.066 0.792,-0.198l-0,-1.199Z" style="fill:#fff;fill-rule:nonzero;"/></svg>
